school/img/country/AN.svg

<svg width="13" height="12" viewBox="0 0 13 12" fill="none" xmlns="http://www.w3.org/2000/svg">
<rect x="0.25" y="0.25" width="12.5" height="11.5" rx="1.75" fill="white" stroke="#F5F5F5" stroke-width="0.5"/>
<mask id="mask0" mask-type="alpha" maskUnits="userSpaceOnUse" x="0" y="0" width="13" height="12">
<rect x="0.25" y="0.25" width="12.5" height="11.5" rx="1.75" fill="white" stroke="white" stroke-width="0.5"/>
</mask>
<g mask="url(#mask0)">
<rect x="4.95239" width="3.09524" height="12" fill="#D6182D"/>
<rect y="4" width="13" height="4" fill="#1425A2"/>
<path fill-rule="evenodd" clip-rule="evenodd" d="M5.26192 6.99996L5.04305 7.08281L5.10715 6.79996L5.04305 6.51712L5.26192 6.59996L5.48078 6.51712L5.41668 6.79996L5.48078 7.08281L5.26192 6.99996Z" fill="white"/>
<path fill-rule="evenodd" clip-rule="evenodd" d="M7.73811 6.99996L7.51925 7.08281L7.58335 6.79996L7.51925 6.51712L7.73811 6.59996L7.95698 6.51712L7.89287 6.79996L7.95698 7.08281L7.73811 6.99996Z" fill="white"/>
<path fill-rule="evenodd" clip-rule="evenodd" d="M4.02382 6.20004L3.80495 6.28288L3.86906 6.00004L3.80495 5.71719L4.02382 5.80004L4.24268 5.71719L4.17858 6.00004L4.24268 6.28288L4.02382 6.20004Z" fill="white"/>
<path fill-rule="evenodd" clip-rule="evenodd" d="M8.97615 6.20004L8.75728 6.28288L8.82139 6.00004L8.75728 5.71719L8.97615 5.80004L9.19501 5.71719L9.13091 6.00004L9.19501 6.28288L8.97615 6.20004Z" fill="white"/>
<path fill-rule="evenodd" clip-rule="evenodd" d="M6.50001 5.39999L6.28115 5.48283L6.34525 5.19999L6.28115 4.91714L6.50001 4.99999L6.71888 4.91714L6.65478 5.19999L6.71888 5.48283L6.50001 5.39999Z" fill="white"/>
</g>
</svg>

<svg width="13" height="12" fill="none" xmlns="http://www.w3.org/2000/svg"><rect x=".25" y=".25" width="12.5" height="11.5" rx="1.75" fill="#fff" stroke="#F5F5F5" stroke-width=".5"/><mask id="a" maskUnits="userSpaceOnUse" x="0" y="0" width="13" height="12"><rect x=".25" y=".25" width="12.5" height="11.5" rx="1.75" fill="#fff" stroke="#fff" stroke-width=".5"/></mask><g mask="url(#a)"><path fill="#D6182D" d="M4.952 0h3.095v12H4.952z"/><path fill="#1425A2" d="M0 4h13v4H0z"/><path fill-rule="evenodd" clip-rule="evenodd" d="M5.262 7l-.219.083.064-.283-.064-.283.219.083.219-.083-.064.283.064.283L5.26 7zm2.476 0l-.219.083.064-.283-.064-.283.22.083.218-.083-.064.283.064.283L7.738 7zm-3.714-.8l-.22.083L3.87 6l-.064-.283.219.083.219-.083L4.179 6l.064.283-.22-.083zm4.952 0l-.219.083L8.821 6l-.064-.283.22.083.218-.083L9.131 6l.064.283-.219-.083zM6.5 5.4l-.219.083.064-.283-.064-.283L6.5 5l.219-.083-.064.283.064.283L6.5 5.4z" fill="#fff"/></g></svg>
